Numix-Circle/48x48/apps/openclonk.svg

<?xml version="1.0" encoding="UTF-8" standalone="no"?>
<svg
   xmlns:dc="http://purl.org/dc/elements/1.1/"
   xmlns:cc="http://creativecommons.org/ns#"
   xmlns:rdf="http://www.w3.org/1999/02/22-rdf-syntax-ns#"
   xmlns:svg="http://www.w3.org/2000/svg"
   xmlns="http://www.w3.org/2000/svg"
   xmlns:xlink="http://www.w3.org/1999/xlink"
   xmlns:sodipodi="http://sodipodi.sourceforge.net/DTD/sodipodi-0.dtd"
   xmlns:inkscape="http://www.inkscape.org/namespaces/inkscape"
   viewBox="0 0 48 48"
   id="svg14100"
   version="1.1"
   inkscape:version="0.91 r13725"
   width="100%"
   height="100%"
   sodipodi:docname="openclonk.svg">
  <metadata
     id="metadata14159">
    <rdf:RDF>
      <cc:Work
         rdf:about="">
        <dc:format>image/svg+xml</dc:format>
        <dc:type
           rdf:resource="http://purl.org/dc/dcmitype/StillImage" />
        <dc:title />
      </cc:Work>
    </rdf:RDF>
  </metadata>
  <sodipodi:namedview
     pagecolor="#ffffff"
     bordercolor="#666666"
     borderopacity="1"
     objecttolerance="10"
     gridtolerance="10"
     guidetolerance="10"
     inkscape:pageopacity="0"
     inkscape:pageshadow="2"
     inkscape:window-width="1366"
     inkscape:window-height="713"
     id="namedview14157"
     showgrid="false"
     inkscape:zoom="63.999997"
     inkscape:cx="25.300386"
     inkscape:cy="21.837675"
     inkscape:window-x="0"
     inkscape:window-y="28"
     inkscape:window-maximized="1"
     inkscape:current-layer="svg14100"
     showguides="true"
     inkscape:snap-bbox="true"
     inkscape:snap-midpoints="true"
     inkscape:object-paths="false"
     inkscape:snap-bbox-edge-midpoints="true">
    <inkscape:grid
       type="xygrid"
       id="grid3957"
       empspacing="5"
       visible="true"
       enabled="true"
       snapvisiblegridlinesonly="true" />
  </sodipodi:namedview>
  <defs
     id="defs14102">
    <linearGradient
       id="linearGradient3929">
      <stop
         style="stop-color:#dfd2fa;stop-opacity:1;"
         offset="0"
         id="stop3931" />
      <stop
         style="stop-color:#ece4fc;stop-opacity:1;"
         offset="1"
         id="stop3933" />
    </linearGradient>
    <linearGradient
       inkscape:collect="always"
       xlink:href="#linearGradient3929"
       id="linearGradient3935"
       x1="1"
       y1="24"
       x2="47"
       y2="24"
       gradientUnits="userSpaceOnUse"
       gradientTransform="matrix(0,-1,1,0,0,48)" />
  </defs>
  <path
     style="opacity:0.05"
     inkscape:connector-curvature="0"
     id="path14121"
     d="m 36.31,5 c 5.859,4.062 9.688,10.831 9.688,18.5 0,12.426 -10.07,22.5 -22.5,22.5 -7.669,0 -14.438,-3.828 -18.5,-9.688 1.037,1.822 2.306,3.499 3.781,4.969 4.085,3.712 9.514,5.969 15.469,5.969 12.703,0 23,-10.298 23,-23 0,-5.954 -2.256,-11.384 -5.969,-15.469 C 39.81,7.306 38.132,6.037 36.31,5 z m 4.969,3.781 c 3.854,4.113 6.219,9.637 6.219,15.719 0,12.703 -10.297,23 -23,23 -6.081,0 -11.606,-2.364 -15.719,-6.219 4.16,4.144 9.883,6.719 16.219,6.719 12.703,0 23,-10.298 23,-23 0,-6.335 -2.575,-12.06 -6.719,-16.219 z" />
  <path
     style="opacity:0.1"
     inkscape:connector-curvature="0"
     id="path14123"
     d="m 41.28,8.781 c 3.712,4.085 5.969,9.514 5.969,15.469 0,12.703 -10.297,23 -23,23 -5.954,0 -11.384,-2.256 -15.469,-5.969 4.113,3.854 9.637,6.219 15.719,6.219 12.703,0 23,-10.298 23,-23 0,-6.081 -2.364,-11.606 -6.219,-15.719 z" />
  <path
     style="opacity:0.2"
     inkscape:connector-curvature="0"
     id="path14125"
     d="M 31.25,2.375 C 39.865,5.529 46,13.792 46,23.505 c 0,12.426 -10.07,22.5 -22.5,22.5 -9.708,0 -17.971,-6.135 -21.12,-14.75 a 23,23 0 0 0 44.875,-7 23,23 0 0 0 -16,-21.875 z" />
  <path
     inkscape:connector-curvature="0"
     style="fill:url(#linearGradient3935);fill-opacity:1"
     id="path14129"
     d="M 1,24 C 1,11.297 11.297,1 24,1 36.703,1 47,11.297 47,24 47,36.703 36.703,47 24,47 11.297,47 1,36.703 1,24 z"
     sodipodi:nodetypes="sssss" />
  <path
     style="fill:#000000;fill-opacity:0.10588235;stroke:none"
     d="M 33.958984 12.841797 C 32.329584 12.779823 30.603874 13.745241 28.898438 14.974609 L 25 14 L 17 16 L 17 16.183594 L 16.15625 15.494141 C 15.444188 14.912531 15.088672 14.621435 15.023438 13.974609 L 14.667969 13.683594 L 12.630859 16.175781 L 12.988281 16.466797 C 13.635117 16.401571 13.991063 16.691826 14.703125 17.273438 L 16.126953 18.4375 L 16.154297 18.462891 C 16.097892 18.641106 16.146307 18.837596 16.294922 18.958984 C 16.421861 19.062668 16.586524 19.075841 16.734375 19.023438 L 17 19.279297 L 17 29 C 17 29.621636 17.613637 30.437723 18.472656 31.265625 L 14.246094 35.779297 C 14.02408 36.016336 14.030593 36.390973 14.261719 36.619141 L 14.623047 36.974609 C 14.854168 37.202777 15.219393 37.196028 15.441406 36.958984 L 19.75 32.359375 C 21.606549 33.781707 23.899653 35 25 35 C 25.97532 35 27.899085 34.042607 29.617188 32.835938 L 31.923828 37.0625 L 33.619141 37.044922 L 35.550781 35.78125 L 35.28125 34.435547 L 31.375 31.414062 C 32.319292 30.535893 33 29.658651 33 29 L 33 24.564453 C 35.352548 20.819114 38.605172 16.403709 35.894531 13.474609 C 35.270804 13.061121 34.622849 12.867047 33.958984 12.841797 z "
     id="path3362" />
  <path
     sodipodi:nodetypes="ccccccc"
     inkscape:connector-curvature="0"
     id="path4125"
     d="m 32,28 c 0,2 -6,6 -8,6 -2,0 -8,-4 -8,-6 l 0,-13.000398 8,-2 8,2 z"
     style="fill:#999999;fill-opacity:1;stroke:none" />
  <path
     style="fill:#e46045;fill-opacity:1;stroke:none"
     d="m 31,28 c 0,1.416447 -5.412634,5 -7,5 -1.546102,0 -7,-3.49602 -7,-5 l 0,-12.000398 7,-2 7,2 z"
     id="path4127"
     inkscape:connector-curvature="0"
     sodipodi:nodetypes="ccccccc" />
  <path
     style="opacity:0.1"
     inkscape:connector-curvature="0"
     id="path14155"
     d="m 40.03,7.531 c 3.712,4.084 5.969,9.514 5.969,15.469 0,12.703 -10.297,23 -23,23 C 17.045,46 11.615,43.744 7.53,40.031 11.708,44.322 17.54,47 23.999,47 c 12.703,0 23,-10.298 23,-23 0,-6.462 -2.677,-12.291 -6.969,-16.469 z" />
  <g
     id="g3925"
     transform="translate(0,0.99960154)">
    <path
       style="fill:#000000;stroke:none;fill-opacity:0.09803922"
       d="M 29.693359 14.423828 C 28.119666 15.461069 26.548323 16.81924 25.070312 17.935547 L 27.681641 21.353516 L 27.722656 21.390625 L 25.837891 23.402344 L 22.130859 20.375 C 22.131257 20.24957 22.081717 20.124952 21.976562 20.039062 L 21.933594 20.003906 C 21.828351 19.917945 21.697131 19.89633 21.574219 19.921875 L 18.265625 17.216797 C 18.322839 17.038165 18.274061 16.838549 18.125 16.716797 C 17.975651 16.594809 17.771193 16.587394 17.607422 16.679688 L 16.15625 15.494141 C 16.096911 15.445673 16.054425 15.408088 16 15.363281 L 16 18.333984 L 16.126953 18.4375 L 16.154297 18.462891 C 16.097892 18.641106 16.146307 18.837596 16.294922 18.958984 C 16.421861 19.062668 16.586524 19.07584 16.734375 19.023438 L 20.064453 22.240234 L 20.027344 22.287109 C 19.885381 22.460913 19.91018 22.715459 20.083984 22.857422 L 23.632812 25.757812 L 18.539062 31.195312 C 18.979256 31.543057 19.434789 31.872241 19.912109 32.185547 L 24.392578 27.402344 C 24.468392 28.969356 25.998868 29.713745 27.386719 29.193359 L 28.462891 30.230469 L 28.615234 31 L 28.943359 31.599609 C 29.521346 31.175588 30.041306 30.732496 30.505859 30.287109 L 30.027344 29.310547 L 29.929688 28.466797 L 30.107422 27.482422 L 30.142578 27.439453 C 30.284541 27.265649 30.257788 27.013056 30.083984 26.871094 L 28.6875 25.730469 L 28.583984 25.013672 C 28.571181 24.92527 28.490747 24.864149 28.402344 24.876953 C 28.313942 24.889756 28.252822 24.970191 28.265625 25.058594 L 28.318359 25.429688 L 27.140625 24.46875 L 28.957031 22.529297 L 29.101562 22.662109 L 32 24.363281 L 32 15 L 29.693359 14.423828 z M 16.8125 18.998047 L 20.064453 21.652344 L 20.064453 21.654297 L 16.8125 18.998047 z M 24.931641 26.826172 L 25.90625 27.765625 L 25.169922 27.740234 C 25.080643 27.737381 25.00676 27.807206 25.003906 27.896484 L 25.003906 27.90625 C 25.001053 27.995529 25.070877 28.069412 25.160156 28.072266 L 26.259766 28.107422 L 27.144531 28.960938 C 26.08654 29.425736 24.579927 28.176622 24.609375 27.169922 L 24.931641 26.826172 z "
       transform="translate(0,-0.99960154)"
       id="path3369" />
    <rect
       transform="matrix(-0.71163866,-0.70254567,-0.68359622,0.7298604,0,0)"
       style="fill:#784421;stroke:none"
       id="rect4121"
       width="1.6809554"
       height="30.961454"
       x="-34.450893"
       y="-15.637465"
       ry="0.58623224" />
    <path
       sodipodi:nodetypes="cccccc"
       inkscape:connector-curvature="0"
       id="path3097-9"
       d="m 24.06975,15.935962 2.612464,3.417099 1.420098,1.309403 3.7192,2.183042 c 2.360386,-3.801355 5.849771,-8.370266 3.073123,-11.370693 -3.326544,-2.2052716 -7.337066,1.826881 -10.824885,4.461149 z"
       style="fill:#666666;fill-opacity:1;stroke:none" />
    <path
       style="fill:#000000;stroke:none;fill-opacity:0.09803922"
       d="M 24.740234 22.505859 L 22.535156 24.861328 L 23.839844 25.925781 L 26.042969 23.570312 L 24.740234 22.505859 z "
       transform="translate(0,-0.99960154)"
       id="rect4206" />
  </g>
  <g
     id="g3907"
     transform="matrix(0.35603107,0.29080502,-0.29080502,0.35603107,60.121635,15.399245)">
    <rect
       ry="0.82922345"
       y="60.351429"
       x="-78"
       height="4.9999995"
       width="37"
       id="rect3887"
       style="fill:#868594;fill-opacity:1;fill-rule:nonzero;stroke:none" />
    <rect
       transform="matrix(0.67581459,-0.73707167,0.73707167,0.67581459,0,0)"
       ry="0.35073924"
       y="8.0492735"
       x="-73.43502"
       height="2.9297042"
       width="0.70147848"
       id="rect3897"
       style="fill:#868594;fill-opacity:1;fill-rule:nonzero;stroke:none" />
    <rect
       ry="0.9392494"
       y="60"
       x="-62"
       height="5.9999981"
       width="2"
       id="rect3905"
       style="fill:#666666;fill-opacity:1;fill-rule:nonzero;stroke:none" />
    <rect
       ry="0.88117486"
       y="60.351429"
       x="-61.133064"
       height="6.9999995"
       width="24.133066"
       id="rect3889"
       style="fill:#7e4b13;fill-opacity:1;fill-rule:nonzero;stroke:none" />
    <path
       inkscape:connector-curvature="0"
       id="path3891"
       d="m -61,66.351428 -12,-1 12,0 z"
       style="fill:#7e4b13;fill-opacity:1;stroke:none" />
    <path
       sodipodi:nodetypes="ccccccc"
       inkscape:connector-curvature="0"
       id="path3893"
       d="m -82,59.351428 1,0 c 1,1 2,1 4,1 l 0,5 c -2,0 -3,0 -4,1 l -1,0 z"
       style="fill:#8d8b9c;fill-opacity:1;stroke:none" />
    <path
       sodipodi:nodetypes="ccccc"
       inkscape:connector-curvature="0"
       id="path3899"
       d="m -48.011289,66.975899 c 2.03699,5.327363 7.574181,4.277896 9.181115,0.192789 l -0.866532,-0.0241 C -40.237714,70.759884 -47.502361,70.290739 -47.124125,67 z"
       style="fill:#868594;fill-opacity:1;stroke:none" />
    <rect
       transform="matrix(0.60753188,0.7942953,-0.7942953,0.60753188,0,0)"
       ry="0.35073924"
       y="74.323135"
       x="27.157152"
       height="3.4042337"
       width="0.72211021"
       id="rect3901"
       style="fill:#868594;fill-opacity:1;fill-rule:nonzero;stroke:none" />
    <path
       sodipodi:nodetypes="cccccccccccc"
       inkscape:connector-curvature="0"
       id="path3895"
       d="m -37,61.351428 1.055541,1.899906 1.326498,1.288487 3.766843,1.727416 12.137906,-0.320954 2.305035,1.896548 -1.517238,4.785136 -2.830233,2.36339 -13.917743,-5.660466 -1.31592,-1.085508 -19.461498,-1.604771 z"
       style="fill:#7e4b13;fill-opacity:1;stroke:none" />
    <rect
       ry="1.0443475"
       y="59.702858"
       x="-73"
       height="6.297142"
       width="2"
       id="rect3903"
       style="fill:#666666;fill-opacity:1;fill-rule:nonzero;stroke:none" />
  </g>
</svg>

<svg xmlns="http://www.w3.org/2000/svg" viewBox="0 0 48 48">
 <defs>
  <linearGradient id="linearGradient3935" x1="1" x2="47" gradientUnits="userSpaceOnUse" gradientTransform="matrix(0,-1,1,0,0,48)">
   <stop style="stop-color:#dfd2fa;stop-opacity:1"/>
   <stop offset="1" style="stop-color:#ece4fc;stop-opacity:1"/>
  </linearGradient>
 </defs>
 <path d="m 36.31,5 c 5.859,4.062 9.688,10.831 9.688,18.5 0,12.426 -10.07,22.5 -22.5,22.5 -7.669,0 -14.438,-3.828 -18.5,-9.688 1.037,1.822 2.306,3.499 3.781,4.969 4.085,3.712 9.514,5.969 15.469,5.969 12.703,0 23,-10.298 23,-23 0,-5.954 -2.256,-11.384 -5.969,-15.469 C 39.81,7.306 38.132,6.037 36.31,5 z m 4.969,3.781 c 3.854,4.113 6.219,9.637 6.219,15.719 0,12.703 -10.297,23 -23,23 -6.081,0 -11.606,-2.364 -15.719,-6.219 4.16,4.144 9.883,6.719 16.219,6.719 12.703,0 23,-10.298 23,-23 0,-6.335 -2.575,-12.06 -6.719,-16.219 z" style="opacity:0.05"/>
 <path d="m 41.28 8.781 c 3.712 4.085 5.969 9.514 5.969 15.469 0 12.703 -10.297 23 -23 23 -5.954 0 -11.384 -2.256 -15.469 -5.969 4.113 3.854 9.637 6.219 15.719 6.219 12.703 0 23 -10.298 23 -23 0 -6.081 -2.364 -11.606 -6.219 -15.719 z" style="opacity:0.1"/>
 <path d="M 31.25,2.375 C 39.865,5.529 46,13.792 46,23.505 c 0,12.426 -10.07,22.5 -22.5,22.5 -9.708,0 -17.971,-6.135 -21.12,-14.75 a 23,23 0 0 0 44.875,-7 23,23 0 0 0 -16,-21.875 z" style="opacity:0.2"/>
 <path d="M 1,24 C 1,11.297 11.297,1 24,1 36.703,1 47,11.297 47,24 47,36.703 36.703,47 24,47 11.297,47 1,36.703 1,24 z" style="fill:url(#linearGradient3935);fill-opacity:1"/>
 <path d="m 33.959 12.842 c -1.629 -0.062 -3.355 0.903 -5.061 2.133 l -3.898 -0.975 l -8 2 l 0 0.184 l -0.844 -0.689 c -0.712 -0.582 -1.068 -0.873 -1.133 -1.52 l -0.355 -0.291 l -2.037 2.492 l 0.357 0.291 c 0.647 -0.065 1 0.225 1.715 0.807 l 1.424 1.164 l 0.027 0.025 c -0.056 0.178 -0.008 0.375 0.141 0.496 c 0.127 0.104 0.292 0.117 0.439 0.064 l 0.266 0.256 l 0 9.721 c 0 0.622 0.614 1.438 1.473 2.266 l -4.227 4.514 c -0.222 0.237 -0.216 0.612 0.016 0.84 l 0.361 0.355 c 0.231 0.228 0.596 0.221 0.818 -0.016 l 4.309 -4.6 c 1.857 1.422 4.15 2.641 5.25 2.641 c 0.975 0 2.899 -0.957 4.617 -2.164 l 2.307 4.227 l 1.695 -0.018 l 1.932 -1.264 l -0.27 -1.346 l -3.906 -3.02 c 0.944 -0.878 1.625 -1.755 1.625 -2.414 l 0 -4.436 c 2.353 -3.745 5.605 -8.161 2.895 -11.09 c -0.624 -0.413 -1.272 -0.608 -1.936 -0.633 z" style="fill:#000;fill-opacity:0.106;stroke:none"/>
 <path d="m 32 28 c 0 2 -6 6 -8 6 -2 0 -8 -4 -8 -6 l 0 -13 8 -2 8 2 z" style="fill:#999;fill-opacity:1;stroke:none"/>
 <path d="m 31 28 c 0 1.416 -5.413 5 -7 5 -1.546 0 -7 -3.496 -7 -5 l 0 -12 7 -2 7 2 z" style="fill:#e46045;fill-opacity:1;stroke:none"/>
 <path d="m 40.03,7.531 c 3.712,4.084 5.969,9.514 5.969,15.469 0,12.703 -10.297,23 -23,23 C 17.045,46 11.615,43.744 7.53,40.031 11.708,44.322 17.54,47 23.999,47 c 12.703,0 23,-10.298 23,-23 0,-6.462 -2.677,-12.291 -6.969,-16.469 z" style="opacity:0.1"/>
 <g transform="translate(0,0.99960154)">
  <path d="m 29.693 14.424 c -1.574 1.037 -3.145 2.395 -4.623 3.512 l 2.611 3.418 l 0.041 0.037 l -1.885 2.01 l -3.707 -3.03 c 0 -0.125 -0.049 -0.25 -0.154 -0.336 l -0.043 -0.035 c -0.105 -0.086 -0.236 -0.108 -0.359 -0.082 l -3.309 -2.705 c 0.057 -0.179 0.008 -0.378 -0.141 -0.5 c -0.149 -0.122 -0.354 -0.129 -0.518 -0.037 l -1.451 -1.186 c -0.059 -0.048 -0.102 -0.086 -0.156 -0.131 l 0 2.971 l 0.127 0.104 l 0.027 0.025 c -0.056 0.178 -0.008 0.375 0.141 0.496 c 0.127 0.104 0.292 0.117 0.439 0.064 l 3.33 3.217 l -0.037 0.047 c -0.142 0.174 -0.117 0.428 0.057 0.57 l 3.549 2.9 l -5.094 5.438 c 0.44 0.348 0.896 0.677 1.373 0.99 l 4.48 -4.783 c 0.076 1.567 1.606 2.311 2.994 1.791 l 1.076 1.037 l 0.152 0.77 l 0.328 0.6 c 0.578 -0.424 1.098 -0.867 1.563 -1.313 l -0.479 -0.977 l -0.098 -0.844 l 0.178 -0.984 l 0.035 -0.043 c 0.142 -0.174 0.115 -0.426 -0.059 -0.568 l -1.396 -1.141 l -0.104 -0.717 c -0.013 -0.088 -0.093 -0.15 -0.182 -0.137 c -0.088 0.013 -0.15 0.093 -0.137 0.182 l 0.053 0.371 l -1.178 -0.961 l 1.816 -1.939 l 0.145 0.133 l 2.898 1.701 l 0 -9.363 l -2.307 -0.576 z m -12.881 4.574 l 3.252 2.654 l 0 0.002 l -3.252 -2.656 z m 8.119 7.828 l 0.975 0.939 l -0.736 -0.025 c -0.089 -0.003 -0.163 0.067 -0.166 0.156 l 0 0.001 c -0.003 0.089 0.067 0.163 0.156 0.166 l 1.1 0.035 l 0.885 0.854 c -1.058 0.465 -2.565 -0.784 -2.535 -1.791 l 0.322 -0.344 z" transform="translate(0,-0.99960154)" style="fill:#000;fill-opacity:0.098;stroke:none"/>
  <rect transform="matrix(-0.71163866,-0.70254567,-0.68359622,0.7298604,0,0)" width="1.681" height="30.961" x="-34.451" y="-15.637" rx="0.586" style="fill:#784421;stroke:none"/>
  <path d="m 24.07 15.936 2.612 3.417 1.42 1.309 3.719 2.183 c 2.36 -3.801 5.85 -8.37 3.073 -11.371 -3.327 -2.205 -7.337 1.827 -10.825 4.461 z" style="fill:#666;fill-opacity:1;stroke:none"/>
  <path d="m 24.74 22.506 l -2.205 2.355 l 1.305 1.064 l 2.203 -2.355 l -1.303 -1.064 z" transform="translate(0,-0.99960154)" style="fill:#000;fill-opacity:0.098;stroke:none"/>
 </g>
 <g transform="matrix(0.35603107,0.29080502,-0.29080502,0.35603107,60.121635,15.399245)">
  <rect y="60.35" x="-78" height="5" width="37" rx="0.829" style="fill:#868594;fill-opacity:1;stroke:none;fill-rule:nonzero"/>
  <rect transform="matrix(0.67581459,-0.73707167,0.73707167,0.67581459,0,0)" y="8.05" x="-73.44" height="2.93" width="0.701" rx="0.35" ry="0.351" style="fill:#868594;fill-opacity:1;stroke:none;fill-rule:nonzero"/>
  <rect y="60" x="-62" height="6" width="2" rx="0.939" style="fill:#666;fill-opacity:1;stroke:none;fill-rule:nonzero"/>
  <rect y="60.35" x="-61.13" height="7" width="24.13" rx="0.881" style="fill:#7e4b13;fill-opacity:1;stroke:none;fill-rule:nonzero"/>
  <path d="m -61 66.35 -12 -1 12 0 z" style="fill:#7e4b13;fill-opacity:1;stroke:none"/>
  <path d="m -82 59.35 1 0 c 1 1 2 1 4 1 l 0 5 c -2 0 -3 0 -4 1 l -1 0 z" style="fill:#8d8b9c;fill-opacity:1;stroke:none"/>
  <path d="m -48.01 66.976 c 2.037 5.327 7.574 4.278 9.181 0.193 l -0.867 -0.024 c -0.541 3.615 -7.806 3.146 -7.427 -0.145 z" style="fill:#868594;fill-opacity:1;stroke:none"/>
  <rect transform="matrix(0.60753188,0.7942953,-0.7942953,0.60753188,0,0)" y="74.32" x="27.16" height="3.404" width="0.722" rx="0.351" style="fill:#868594;fill-opacity:1;stroke:none;fill-rule:nonzero"/>
  <path d="m -37 61.35 1.056 1.9 1.326 1.288 3.767 1.727 12.138 -0.321 2.305 1.897 -1.517 4.785 -2.83 2.363 -13.918 -5.66 -1.316 -1.086 -19.461 -1.605 z" style="fill:#7e4b13;fill-opacity:1;stroke:none"/>
  <rect ry="1.044" y="59.703" x="-73" height="6.297" width="2" rx="1" style="fill:#666;fill-opacity:1;stroke:none;fill-rule:nonzero"/>
 </g>
</svg>
